icons/modern/speaker-high-volume.svg

<svg width="32" height="32" viewBox="0 0 32 32" fill="none" xmlns="http://www.w3.org/2000/svg">
<circle cx="18.9976" cy="15.9889" r="3.21875" fill="url(#paint0_radial_18_17849)"/>
<circle cx="18.9976" cy="15.9889" r="3.21875" fill="url(#paint1_radial_18_17849)"/>
<circle cx="18.9976" cy="15.9889" r="3.21875" fill="url(#paint2_radial_18_17849)"/>
<path d="M2.46631 10.6436C2.46631 9.75992 3.18265 9.04358 4.06631 9.04358H8.40381V22.9342H4.06631C3.18265 22.9342 2.46631 22.2179 2.46631 21.3342V10.6436Z" fill="url(#paint3_linear_18_17849)"/>
<path d="M2.46631 10.6436C2.46631 9.75992 3.18265 9.04358 4.06631 9.04358H8.40381V22.9342H4.06631C3.18265 22.9342 2.46631 22.2179 2.46631 21.3342V10.6436Z" fill="url(#paint4_linear_18_17849)"/>
<path d="M2.46631 10.6436C2.46631 9.75992 3.18265 9.04358 4.06631 9.04358H8.40381V22.9342H4.06631C3.18265 22.9342 2.46631 22.2179 2.46631 21.3342V10.6436Z" fill="url(#paint5_linear_18_17849)"/>
<path d="M2.46631 10.6436C2.46631 9.75992 3.18265 9.04358 4.06631 9.04358H8.40381V22.9342H4.06631C3.18265 22.9342 2.46631 22.2179 2.46631 21.3342V10.6436Z" fill="url(#paint6_linear_18_17849)"/>
<path d="M2.46631 10.6436C2.46631 9.75992 3.18265 9.04358 4.06631 9.04358H8.40381V22.9342H4.06631C3.18265 22.9342 2.46631 22.2179 2.46631 21.3342V10.6436Z" fill="url(#paint7_linear_18_17849)"/>
<path d="M19.2632 6.86486C19.2632 5.24461 17.539 4.2066 16.1071 4.96478L8.40381 9.04365V22.9343L16.1028 27.033C17.5349 27.7954 19.2632 26.7576 19.2632 25.1352V6.86486Z" fill="url(#paint8_linear_18_17849)"/>
<path d="M19.2632 6.86486C19.2632 5.24461 17.539 4.2066 16.1071 4.96478L8.40381 9.04365V22.9343L16.1028 27.033C17.5349 27.7954 19.2632 26.7576 19.2632 25.1352V6.86486Z" fill="url(#paint9_linear_18_17849)"/>
<path d="M19.2632 6.86486C19.2632 5.24461 17.539 4.2066 16.1071 4.96478L8.40381 9.04365V22.9343L16.1028 27.033C17.5349 27.7954 19.2632 26.7576 19.2632 25.1352V6.86486Z" fill="url(#paint10_radial_18_17849)"/>
<path d="M19.2632 6.86486C19.2632 5.24461 17.539 4.2066 16.1071 4.96478L8.40381 9.04365V22.9343L16.1028 27.033C17.5349 27.7954 19.2632 26.7576 19.2632 25.1352V6.86486Z" fill="url(#paint11_linear_18_17849)"/>
<path d="M19.2632 6.86486C19.2632 5.24461 17.539 4.2066 16.1071 4.96478L8.40381 9.04365V22.9343L16.1028 27.033C17.5349 27.7954 19.2632 26.7576 19.2632 25.1352V6.86486Z" fill="url(#paint12_linear_18_17849)"/>
<path d="M19.2632 6.86486C19.2632 5.24461 17.539 4.2066 16.1071 4.96478L8.40381 9.04365V22.9343L16.1028 27.033C17.5349 27.7954 19.2632 26.7576 19.2632 25.1352V6.86486Z" fill="url(#paint13_radial_18_17849)"/>
<g filter="url(#filter0_i_18_17849)">
<path d="M23.3003 11.5898C23.9244 12.1601 25.1887 13.6041 25.1887 15.9154C25.1887 18.2266 23.962 19.8482 23.3003 20.4185" stroke="url(#paint14_linear_18_17849)" stroke-width="1.9" stroke-linecap="round"/>
</g>
<g filter="url(#filter1_f_18_17849)">
<path d="M23.5264 11.3961C24.1504 11.9664 25.4148 13.4104 25.4148 15.7217C25.4148 18.0329 24.1881 19.6545 23.5264 20.2247" stroke="url(#paint15_linear_18_17849)" stroke-width="0.5" stroke-linecap="round"/>
</g>
<g filter="url(#filter2_i_18_17849)">
<path d="M24.2334 7.07458C25.105 7.51037 29.2645 10.0928 29.2645 15.8271C29.2645 21.7378 24.9113 24.1427 24.2012 24.5785" stroke="url(#paint16_linear_18_17849)" stroke-width="1.9" stroke-linecap="round"/>
</g>
<g filter="url(#filter3_f_18_17849)">
<path d="M24.5027 7.05847C25.3743 7.49425 29.5338 10.0767 29.5338 15.811C29.5338 21.7217 25.1806 24.1266 24.4705 24.5624" stroke="url(#paint17_linear_18_17849)" stroke-width="0.5" stroke-linecap="round"/>
</g>
<defs>
<filter id="filter0_i_18_17849" x="22.3503" y="10.3899" width="3.78833" height="10.9786" filterUnits="userSpaceOnUse" color-interpolation-filters="sRGB">
<feFlood flood-opacity="0" result="BackgroundImageFix"/>
<feBlend mode="normal" in="SourceGraphic" in2="BackgroundImageFix" result="shape"/>
<feColorMatrix in="SourceAlpha" type="matrix" values="0 0 0 0 0 0 0 0 0 0 0 0 0 0 0 0 0 0 127 0" result="hardAlpha"/>
<feOffset dy="-0.25"/>
<feGaussianBlur stdDeviation="0.325"/>
<feComposite in2="hardAlpha" operator="arithmetic" k2="-1" k3="1"/>
<feColorMatrix type="matrix" values="0 0 0 0 0.266667 0 0 0 0 0.396078 0 0 0 0 0.713726 0 0 0 1 0"/>
<feBlend mode="normal" in2="shape" result="effect1_innerShadow_18_17849"/>
</filter>
<filter id="filter1_f_18_17849" x="22.8764" y="10.7461" width="3.18843" height="10.1286" filterUnits="userSpaceOnUse" color-interpolation-filters="sRGB">
<feFlood flood-opacity="0" result="BackgroundImageFix"/>
<feBlend mode="normal" in="SourceGraphic" in2="BackgroundImageFix" result="shape"/>
<feGaussianBlur stdDeviation="0.2" result="effect1_foregroundBlur_18_17849"/>
</filter>
<filter id="filter2_i_18_17849" x="23.251" y="5.72439" width="6.96362" height="19.8042" filterUnits="userSpaceOnUse" color-interpolation-filters="sRGB">
<feFlood flood-opacity="0" result="BackgroundImageFix"/>
<feBlend mode="normal" in="SourceGraphic" in2="BackgroundImageFix" result="shape"/>
<feColorMatrix in="SourceAlpha" type="matrix" values="0 0 0 0 0 0 0 0 0 0 0 0 0 0 0 0 0 0 127 0" result="hardAlpha"/>
<feOffset dy="-0.4"/>
<feGaussianBlur stdDeviation="0.5"/>
<feComposite in2="hardAlpha" operator="arithmetic" k2="-1" k3="1"/>
<feColorMatrix type="matrix" values="0 0 0 0 0.266667 0 0 0 0 0.396078 0 0 0 0 0.713726 0 0 0 1 0"/>
<feBlend mode="normal" in2="shape" result="effect1_innerShadow_18_17849"/>
</filter>
<filter id="filter3_f_18_17849" x="23.8205" y="6.40847" width="6.36348" height="18.8039" filterUnits="userSpaceOnUse" color-interpolation-filters="sRGB">
<feFlood flood-opacity="0" result="BackgroundImageFix"/>
<feBlend mode="normal" in="SourceGraphic" in2="BackgroundImageFix" result="shape"/>
<feGaussianBlur stdDeviation="0.2" result="effect1_foregroundBlur_18_17849"/>
</filter>
<radialGradient id="paint0_radial_18_17849" cx="0" cy="0" r="1" gradientUnits="userSpaceOnUse" gradientTransform="translate(21.2838 13.8819) rotate(113.233) scale(5.79574)">
<stop offset="0.0970969" stop-color="#E1E0E4"/>
<stop offset="1" stop-color="#CECAD6"/>
</radialGradient>
<radialGradient id="paint1_radial_18_17849" cx="0" cy="0" r="1" gradientUnits="userSpaceOnUse" gradientTransform="translate(21.1536 14.9234) rotate(145.706) scale(1.89104)">
<stop stop-color="#F4F6FE"/>
<stop offset="1" stop-color="#F4F6FE" stop-opacity="0"/>
</radialGradient>
<radialGradient id="paint2_radial_18_17849" cx="0" cy="0" r="1" gradientUnits="userSpaceOnUse" gradientTransform="translate(19.2698 15.2319) rotate(93.9172) scale(3.98501 4.05745)">
<stop offset="0.594478" stop-color="#D1CCD9" stop-opacity="0"/>
<stop offset="1" stop-color="#B9B6BF"/>
</radialGradient>
<linearGradient id="paint3_linear_18_17849" x1="9.46631" y1="11.2467" x2="5.43506" y2="20.7467" gradientUnits="userSpaceOnUse">
<stop offset="0.213026" stop-color="#D2CED6"/>
<stop offset="1" stop-color="#DDD5E6"/>
</linearGradient>
<linearGradient id="paint4_linear_18_17849" x1="5.43506" y1="9.04358" x2="5.43506" y2="14.1117" gradientUnits="userSpaceOnUse">
<stop stop-color="#C5C4C5"/>
<stop offset="1" stop-color="#C5C4C5" stop-opacity="0"/>
</linearGradient>
<linearGradient id="paint5_linear_18_17849" x1="6.71631" y1="23.3092" x2="6.71631" y2="19.3092" gradientUnits="userSpaceOnUse">
<stop stop-color="#B6B0BD"/>
<stop offset="1" stop-color="#D8D0E1" stop-opacity="0"/>
</linearGradient>
<linearGradient id="paint6_linear_18_17849" x1="2.46631" y1="18.2467" x2="5.02881" y2="18.2467" gradientUnits="userSpaceOnUse">
<stop offset="0.0243902" stop-color="#A5A5A5"/>
<stop offset="1" stop-color="#C3BECB" stop-opacity="0"/>
</linearGradient>
<linearGradient id="paint7_linear_18_17849" x1="8.98712" y1="20.7356" x2="8.01871" y2="20.7356" gradientUnits="userSpaceOnUse">
<stop offset="0.266667" stop-color="#CCC5D4"/>
<stop offset="1" stop-color="#CCC5D4" stop-opacity="0"/>
</linearGradient>
<linearGradient id="paint8_linear_18_17849" x1="19.8413" y1="7.74676" x2="11.3413" y2="24.0593" gradientUnits="userSpaceOnUse">
<stop stop-color="#BFBAC4"/>
<stop offset="1" stop-color="#CAC2D3"/>
</linearGradient>
<linearGradient id="paint9_linear_18_17849" x1="7.2496" y1="18.565" x2="11.433" y2="18.565" gradientUnits="userSpaceOnUse">
<stop stop-color="#C4BECC"/>
<stop offset="1" stop-color="#C4BECC" stop-opacity="0"/>
</linearGradient>
<radialGradient id="paint10_radial_18_17849" cx="0" cy="0" r="1" gradientUnits="userSpaceOnUse" gradientTransform="translate(11.4976 6.96551) rotate(59.0362) scale(5.10208 17.8709)">
<stop offset="0.114889" stop-color="#ABABAC"/>
<stop offset="1" stop-color="#C2BDC7" stop-opacity="0"/>
</radialGradient>
<linearGradient id="paint11_linear_18_17849" x1="12.4351" y1="25.4655" x2="14.1226" y2="22.278" gradientUnits="userSpaceOnUse">
<stop stop-color="#B3AFB8"/>
<stop offset="1" stop-color="#CAC2D3" stop-opacity="0"/>
</linearGradient>
<linearGradient id="paint12_linear_18_17849" x1="20.4593" y1="21.6934" x2="17.0743" y2="21.6934" gradientUnits="userSpaceOnUse">
<stop stop-color="#E6E7EF"/>
<stop offset="1" stop-color="#D2CBDA" stop-opacity="0"/>
</linearGradient>
<radialGradient id="paint13_radial_18_17849" cx="0" cy="0" r="1" gradientUnits="userSpaceOnUse" gradientTransform="translate(18.4038 11.653) rotate(90) scale(16.0625 2.22649)">
<stop stop-color="#F8F6FB"/>
<stop offset="1" stop-color="#E7E6EE" stop-opacity="0"/>
</radialGradient>
<linearGradient id="paint14_linear_18_17849" x1="24.2445" y1="11.5898" x2="24.2445" y2="21.4676" gradientUnits="userSpaceOnUse">
<stop stop-color="#41AEFF"/>
<stop offset="1" stop-color="#4998F7"/>
</linearGradient>
<linearGradient id="paint15_linear_18_17849" x1="24.4706" y1="11.3961" x2="24.4706" y2="21.2738" gradientUnits="userSpaceOnUse">
<stop stop-color="#5BC7FF"/>
<stop offset="1" stop-color="#4C97F6"/>
</linearGradient>
<linearGradient id="paint16_linear_18_17849" x1="28.4087" y1="11.5898" x2="28.4087" y2="21.4676" gradientUnits="userSpaceOnUse">
<stop stop-color="#41AEFF"/>
<stop offset="1" stop-color="#4998F7"/>
</linearGradient>
<linearGradient id="paint17_linear_18_17849" x1="27.0021" y1="7.05847" x2="27.0021" y2="26.6424" gradientUnits="userSpaceOnUse">
<stop stop-color="#5BC7FF"/>
<stop offset="1" stop-color="#4C97F6"/>
</linearGradient>
</defs>
</svg>

<svg width="32" height="32" fill="none" xmlns="http://www.w3.org/2000/svg"><circle cx="18.998" cy="15.989" r="3.219" fill="url(#a)"/><circle cx="18.998" cy="15.989" r="3.219" fill="url(#b)"/><circle cx="18.998" cy="15.989" r="3.219" fill="url(#c)"/><path d="M2.466 10.644a1.6 1.6 0 0 1 1.6-1.6h4.338v13.89H4.066a1.6 1.6 0 0 1-1.6-1.6v-10.69Z" fill="url(#d)"/><path d="M2.466 10.644a1.6 1.6 0 0 1 1.6-1.6h4.338v13.89H4.066a1.6 1.6 0 0 1-1.6-1.6v-10.69Z" fill="url(#e)"/><path d="M2.466 10.644a1.6 1.6 0 0 1 1.6-1.6h4.338v13.89H4.066a1.6 1.6 0 0 1-1.6-1.6v-10.69Z" fill="url(#f)"/><path d="M2.466 10.644a1.6 1.6 0 0 1 1.6-1.6h4.338v13.89H4.066a1.6 1.6 0 0 1-1.6-1.6v-10.69Z" fill="url(#g)"/><path d="M2.466 10.644a1.6 1.6 0 0 1 1.6-1.6h4.338v13.89H4.066a1.6 1.6 0 0 1-1.6-1.6v-10.69Z" fill="url(#h)"/><path d="M19.263 6.865c0-1.62-1.724-2.658-3.156-1.9L8.404 9.044v13.89l7.699 4.099c1.432.762 3.16-.275 3.16-1.898V6.865Z" fill="url(#i)"/><path d="M19.263 6.865c0-1.62-1.724-2.658-3.156-1.9L8.404 9.044v13.89l7.699 4.099c1.432.762 3.16-.275 3.16-1.898V6.865Z" fill="url(#j)"/><path d="M19.263 6.865c0-1.62-1.724-2.658-3.156-1.9L8.404 9.044v13.89l7.699 4.099c1.432.762 3.16-.275 3.16-1.898V6.865Z" fill="url(#k)"/><path d="M19.263 6.865c0-1.62-1.724-2.658-3.156-1.9L8.404 9.044v13.89l7.699 4.099c1.432.762 3.16-.275 3.16-1.898V6.865Z" fill="url(#l)"/><path d="M19.263 6.865c0-1.62-1.724-2.658-3.156-1.9L8.404 9.044v13.89l7.699 4.099c1.432.762 3.16-.275 3.16-1.898V6.865Z" fill="url(#m)"/><path d="M19.263 6.865c0-1.62-1.724-2.658-3.156-1.9L8.404 9.044v13.89l7.699 4.099c1.432.762 3.16-.275 3.16-1.898V6.865Z" fill="url(#n)"/><g filter="url(#o)"><path d="M23.3 11.59a5.846 5.846 0 0 1 1.889 4.325c0 2.312-1.227 3.933-1.889 4.504" stroke="url(#p)" stroke-width="1.9" stroke-linecap="round"/></g><g filter="url(#q)"><path d="M23.526 11.396a5.846 5.846 0 0 1 1.889 4.326c0 2.31-1.227 3.932-1.889 4.503" stroke="url(#r)" stroke-width=".5" stroke-linecap="round"/></g><g filter="url(#s)"><path d="M24.233 7.075c.872.435 5.032 3.018 5.032 8.752 0 5.91-4.354 8.316-5.064 8.751" stroke="url(#t)" stroke-width="1.9" stroke-linecap="round"/></g><g filter="url(#u)"><path d="M24.503 7.058c.871.436 5.03 3.019 5.03 8.753 0 5.91-4.352 8.316-5.063 8.751" stroke="url(#v)" stroke-width=".5" stroke-linecap="round"/></g><defs><linearGradient id="d" x1="9.466" y1="11.247" x2="5.435" y2="20.747" gradientUnits="userSpaceOnUse"><stop offset=".213" stop-color="#D2CED6"/><stop offset="1" stop-color="#DDD5E6"/></linearGradient><linearGradient id="e" x1="5.435" y1="9.044" x2="5.435" y2="14.112" gradientUnits="userSpaceOnUse"><stop stop-color="#C5C4C5"/><stop offset="1" stop-color="#C5C4C5" stop-opacity="0"/></linearGradient><linearGradient id="f" x1="6.716" y1="23.309" x2="6.716" y2="19.309" gradientUnits="userSpaceOnUse"><stop stop-color="#B6B0BD"/><stop offset="1" stop-color="#D8D0E1" stop-opacity="0"/></linearGradient><linearGradient id="g" x1="2.466" y1="18.247" x2="5.029" y2="18.247" gradientUnits="userSpaceOnUse"><stop offset=".024" stop-color="#A5A5A5"/><stop offset="1" stop-color="#C3BECB" stop-opacity="0"/></linearGradient><linearGradient id="h" x1="8.987" y1="20.736" x2="8.019" y2="20.736" gradientUnits="userSpaceOnUse"><stop offset=".267" stop-color="#CCC5D4"/><stop offset="1" stop-color="#CCC5D4" stop-opacity="0"/></linearGradient><linearGradient id="i" x1="19.841" y1="7.747" x2="11.341" y2="24.059" gradientUnits="userSpaceOnUse"><stop stop-color="#BFBAC4"/><stop offset="1" stop-color="#CAC2D3"/></linearGradient><linearGradient id="j" x1="7.25" y1="18.565" x2="11.433" y2="18.565" gradientUnits="userSpaceOnUse"><stop stop-color="#C4BECC"/><stop offset="1" stop-color="#C4BECC" stop-opacity="0"/></linearGradient><linearGradient id="l" x1="12.435" y1="25.465" x2="14.123" y2="22.278" gradientUnits="userSpaceOnUse"><stop stop-color="#B3AFB8"/><stop offset="1" stop-color="#CAC2D3" stop-opacity="0"/></linearGradient><linearGradient id="m" x1="20.459" y1="21.693" x2="17.074" y2="21.693" gradientUnits="userSpaceOnUse"><stop stop-color="#E6E7EF"/><stop offset="1" stop-color="#D2CBDA" stop-opacity="0"/></linearGradient><linearGradient id="p" x1="24.244" y1="11.59" x2="24.244" y2="21.468" gradientUnits="userSpaceOnUse"><stop stop-color="#41AEFF"/><stop offset="1" stop-color="#4998F7"/></linearGradient><linearGradient id="r" x1="24.471" y1="11.396" x2="24.471" y2="21.274" gradientUnits="userSpaceOnUse"><stop stop-color="#5BC7FF"/><stop offset="1" stop-color="#4C97F6"/></linearGradient><linearGradient id="t" x1="28.409" y1="11.59" x2="28.409" y2="21.468" gradientUnits="userSpaceOnUse"><stop stop-color="#41AEFF"/><stop offset="1" stop-color="#4998F7"/></linearGradient><linearGradient id="v" x1="27.002" y1="7.058" x2="27.002" y2="26.642" gradientUnits="userSpaceOnUse"><stop stop-color="#5BC7FF"/><stop offset="1" stop-color="#4C97F6"/></linearGradient><radialGradient id="a" cx="0" cy="0" r="1" gradientUnits="userSpaceOnUse" gradientTransform="rotate(113.233 6.068 13.954) scale(5.79574)"><stop offset=".097" stop-color="#E1E0E4"/><stop offset="1" stop-color="#CECAD6"/></radialGradient><radialGradient id="b" cx="0" cy="0" r="1" gradientUnits="userSpaceOnUse" gradientTransform="rotate(145.706 8.275 10.725) scale(1.89104)"><stop stop-color="#F4F6FE"/><stop offset="1" stop-color="#F4F6FE" stop-opacity="0"/></radialGradient><radialGradient id="c" cx="0" cy="0" r="1" gradientUnits="userSpaceOnUse" gradientTransform="rotate(93.917 2.523 16.614) scale(3.98501 4.05745)"><stop offset=".594" stop-color="#D1CCD9" stop-opacity="0"/><stop offset="1" stop-color="#B9B6BF"/></radialGradient><radialGradient id="k" cx="0" cy="0" r="1" gradientUnits="userSpaceOnUse" gradientTransform="matrix(2.625 4.375 -15.32416 9.19451 11.498 6.966)"><stop offset=".115" stop-color="#ABABAC"/><stop offset="1" stop-color="#C2BDC7" stop-opacity="0"/></radialGradient><radialGradient id="n" cx="0" cy="0" r="1" gradientUnits="userSpaceOnUse" gradientTransform="matrix(0 16.0625 -2.22649 0 18.404 11.653)"><stop stop-color="#F8F6FB"/><stop offset="1" stop-color="#E7E6EE" stop-opacity="0"/></radialGradient><filter id="o" x="22.35" y="10.39" width="3.788" height="10.979" filterUnits="userSpaceOnUse" color-interpolation-filters="sRGB"><feFlood flood-opacity="0" result="BackgroundImageFix"/><feBlend in="SourceGraphic" in2="BackgroundImageFix" result="shape"/><feColorMatrix in="SourceAlpha" values="0 0 0 0 0 0 0 0 0 0 0 0 0 0 0 0 0 0 127 0" result="hardAlpha"/><feOffset dy="-.25"/><feGaussianBlur stdDeviation=".325"/><feComposite in2="hardAlpha" operator="arithmetic" k2="-1" k3="1"/><feColorMatrix values="0 0 0 0 0.266667 0 0 0 0 0.396078 0 0 0 0 0.713726 0 0 0 1 0"/><feBlend in2="shape" result="effect1_innerShadow_18_17849"/></filter><filter id="q" x="22.876" y="10.746" width="3.188" height="10.129" filterUnits="userSpaceOnUse" color-interpolation-filters="sRGB"><feFlood flood-opacity="0" result="BackgroundImageFix"/><feBlend in="SourceGraphic" in2="BackgroundImageFix" result="shape"/><feGaussianBlur stdDeviation=".2" result="effect1_foregroundBlur_18_17849"/></filter><filter id="s" x="23.251" y="5.724" width="6.964" height="19.804" filterUnits="userSpaceOnUse" color-interpolation-filters="sRGB"><feFlood flood-opacity="0" result="BackgroundImageFix"/><feBlend in="SourceGraphic" in2="BackgroundImageFix" result="shape"/><feColorMatrix in="SourceAlpha" values="0 0 0 0 0 0 0 0 0 0 0 0 0 0 0 0 0 0 127 0" result="hardAlpha"/><feOffset dy="-.4"/><feGaussianBlur stdDeviation=".5"/><feComposite in2="hardAlpha" operator="arithmetic" k2="-1" k3="1"/><feColorMatrix values="0 0 0 0 0.266667 0 0 0 0 0.396078 0 0 0 0 0.713726 0 0 0 1 0"/><feBlend in2="shape" result="effect1_innerShadow_18_17849"/></filter><filter id="u" x="23.82" y="6.408" width="6.363" height="18.804" filterUnits="userSpaceOnUse" color-interpolation-filters="sRGB"><feFlood flood-opacity="0" result="BackgroundImageFix"/><feBlend in="SourceGraphic" in2="BackgroundImageFix" result="shape"/><feGaussianBlur stdDeviation=".2" result="effect1_foregroundBlur_18_17849"/></filter></defs></svg>
